src/assets/icons/redux.svg

<svg width="51" height="50" viewBox="0 0 51 50" fill="none" xmlns="http://www.w3.org/2000/svg">
<path d="M34.4442 33.6812C36.1741 33.5051 37.4864 32.039 37.4267 30.2795C37.3672 28.5202 35.8758 27.1127 34.0863 27.1127H33.967C32.1177 27.1713 30.6863 28.6962 30.7459 30.5142C30.8056 31.3938 31.1634 32.1562 31.7003 32.684C29.6722 36.6134 26.5703 39.487 21.9177 41.8915C18.7561 43.5335 15.4755 44.1201 12.1948 43.7096C9.51044 43.3577 7.42267 42.1849 6.11017 40.2493C4.20147 37.3757 4.02258 34.2674 5.63317 31.1593C6.76659 28.9307 8.5559 27.2885 9.68933 26.4674C9.45075 25.7051 9.09276 24.4149 8.91387 23.4767C0.264523 29.6345 1.15936 37.9623 3.784 41.8915C5.75237 44.8238 9.74901 46.642 14.1631 46.642C15.3561 46.642 16.5491 46.5245 17.7422 46.2315C25.3775 44.7652 31.1636 40.3081 34.4442 33.6812ZM44.9428 26.409C40.4094 21.1895 33.7284 18.3159 26.0931 18.3159H25.1389C24.602 17.2602 23.4686 16.5563 22.2159 16.5563H22.0966C20.2475 16.6151 18.8161 18.1398 18.8756 19.9579C18.9353 21.7173 20.4264 23.1248 22.2159 23.1248H22.3352C23.6475 23.0662 24.7809 22.2451 25.2581 21.1307H26.3317C30.8653 21.1307 35.16 22.4209 39.0375 24.9427C42.0198 26.8781 44.1673 29.3999 45.3603 32.4495C46.3744 34.9126 46.3147 37.3171 45.2409 39.3698C43.5708 42.4779 40.7673 44.1787 37.0689 44.1787C34.6828 44.1787 32.4163 43.4749 31.2231 42.9471C30.567 43.5335 29.3739 44.4718 28.5387 45.0585C31.1039 46.2313 33.7284 46.8765 36.2337 46.8765C41.9602 46.8765 46.1955 43.7681 47.8061 40.6599C49.5358 37.2584 49.4164 31.3938 44.9428 26.409ZM14.6403 34.6779C14.7 36.4373 16.1912 37.8446 17.9808 37.8446H18.1002C19.9492 37.7862 21.3808 36.2613 21.3211 34.4434C21.2616 32.6838 19.7702 31.2765 17.9808 31.2765H17.8616C17.7422 31.2765 17.5631 31.2765 17.4441 31.3349C14.9983 27.3471 13.9842 23.0074 14.3422 18.3157C14.5806 14.7969 15.7737 11.7472 17.8616 9.2254C19.5912 7.05548 22.9317 5.99987 25.1986 5.94137C31.5214 5.824 34.2055 13.5652 34.3845 16.6735C35.16 16.8495 36.4723 17.2601 37.3672 17.5534C36.6512 8.05278 30.6862 3.12646 24.96 3.12646C19.5912 3.12646 14.6403 6.93848 12.6717 12.5685C9.92792 20.0751 11.7174 27.2885 15.0578 32.9773C14.7597 33.3877 14.5806 34.0327 14.6403 34.6779Z" fill="#764ABC"/>
</svg>

<svg xmlns="http://www.w3.org/2000/svg" width="51" height="50" fill="none"><path fill="#764ABC" d="M34.444 33.681a3.303 3.303 0 0 0 2.983-3.401c-.06-1.76-1.551-3.167-3.34-3.167h-.12c-1.85.058-3.28 1.583-3.221 3.401.06.88.417 1.642.954 2.17-2.028 3.93-5.13 6.803-9.782 9.208-3.162 1.641-6.442 2.228-9.723 1.818-2.685-.352-4.772-1.525-6.085-3.46-1.909-2.874-2.087-5.983-.477-9.09 1.134-2.23 2.923-3.872 4.056-4.693-.238-.762-.596-2.052-.775-2.99-8.65 6.157-7.755 14.485-5.13 18.415 1.968 2.932 5.965 4.75 10.38 4.75 1.192 0 2.385-.117 3.578-.41 7.636-1.467 13.422-5.924 16.702-12.55Zm10.499-7.272c-4.534-5.22-11.215-8.093-18.85-8.093h-.954c-.537-1.056-1.67-1.76-2.923-1.76h-.12c-1.849.06-3.28 1.584-3.22 3.402.06 1.76 1.55 3.167 3.34 3.167h.12c1.312-.059 2.445-.88 2.922-1.994h1.074c4.533 0 8.828 1.29 12.706 3.812 2.982 1.935 5.13 4.457 6.322 7.506 1.014 2.464.955 4.868-.12 6.92-1.67 3.109-4.473 4.81-8.171 4.81-2.386 0-4.653-.704-5.846-1.232a35.176 35.176 0 0 1-2.684 2.111c2.565 1.173 5.19 1.819 7.695 1.819 5.726 0 9.962-3.109 11.572-6.217 1.73-3.402 1.61-9.266-2.863-14.251ZM14.64 34.678c.06 1.76 1.551 3.167 3.34 3.167h.12c1.85-.059 3.28-1.584 3.221-3.402-.06-1.76-1.55-3.166-3.34-3.166h-.12c-.119 0-.298 0-.417.058-2.446-3.988-3.46-8.328-3.102-13.02.239-3.518 1.432-6.568 3.52-9.09 1.73-2.17 5.07-3.225 7.337-3.284 6.322-.117 9.006 7.624 9.186 10.733.775.175 2.087.586 2.982.88-.716-9.501-6.68-14.428-12.407-14.428-5.369 0-10.32 3.812-12.288 9.443-2.744 7.506-.955 14.72 2.386 20.408-.298.41-.477 1.056-.418 1.7Z"/></svg>
